static/logos/dynaboard-wordmark-color.svg

<svg width="100" height="18" viewBox="0 0 100 18" fill="none" xmlns="http://www.w3.org/2000/svg">
<g clip-path="url(#clip0_1_2892)">
<path d="M27.625 13.6047H31.1672C34.0762 13.6047 36.6236 11.9251 36.6236 8.35595C36.6236 4.77182 34.0762 3.10718 31.1672 3.10718H27.625V13.6047ZM29.8859 11.6552V5.04176H30.9411C32.6744 5.04176 34.3325 5.88153 34.3325 8.35595C34.3325 10.8304 32.6744 11.6552 30.9411 11.6552H29.8859Z" fill="black"/>
<path d="M38.5425 15.0295H37.6532V16.6641H38.7686C40.3211 16.6641 40.8185 15.8993 41.3159 14.5046L41.6325 13.6048L44.4059 6.04663H42.2505L40.6678 10.9355L39.0701 6.04663H36.9297L39.6729 13.5149L39.3866 14.2647C39.1906 14.8045 38.8741 15.0295 38.5425 15.0295Z" fill="black"/>
<path d="M44.9609 13.6046H47.0712V9.46563C47.0712 8.49088 47.7193 7.78602 48.6388 7.78602C49.513 7.78602 50.1008 8.44596 50.1008 9.36071V13.6046H52.211V8.89585C52.211 7.15624 51.0956 5.92651 49.3773 5.92651C48.3373 5.92651 47.4932 6.36138 47.0712 7.09618V6.04651H44.9609V13.6046Z" fill="black"/>
<path d="M56.4626 13.7247C57.3516 13.7247 58.1505 13.3647 58.5273 12.8099V13.6046H60.6378V6.04651H58.5273V6.79635C58.1052 6.27143 57.3516 5.92651 56.4322 5.92651C54.2165 5.92651 52.875 7.47115 52.875 9.82563C52.875 12.18 54.2165 13.7247 56.4626 13.7247ZM54.94 9.82563C54.94 8.55093 55.6786 7.7111 56.7941 7.7111C57.9245 7.7111 58.6632 8.55093 58.6632 9.82563C58.6632 11.0853 57.9245 11.9251 56.7941 11.9251C55.6786 11.9251 54.94 11.0853 54.94 9.82563Z" fill="black"/>
<path d="M65.6908 13.7248C67.9211 13.7248 69.2781 12.1802 69.2781 9.82577C69.2781 7.47129 67.9211 5.92671 65.7206 5.92671C64.7709 5.92671 64.0328 6.28659 63.6107 6.84146V2.76245H61.5156V13.6048H63.6107V12.7801C64.0328 13.3649 64.8162 13.7248 65.6908 13.7248ZM63.4902 9.82577C63.4902 8.55107 64.2283 7.71129 65.3438 7.71129C66.4593 7.71129 67.1979 8.55107 67.1979 9.82577C67.1979 11.0854 66.4593 11.9253 65.3438 11.9253C64.2283 11.9253 63.4902 11.0854 63.4902 9.82577Z" fill="black"/>
<path d="M73.736 13.7247C76.0724 13.7247 77.7453 12.0751 77.7453 9.82563C77.7453 7.57613 76.0724 5.92651 73.736 5.92651C71.4 5.92651 69.7266 7.57613 69.7266 9.82563C69.7266 12.0751 71.4 13.7247 73.736 13.7247ZM71.8371 9.82563C71.8371 8.56591 72.6056 7.7111 73.736 7.7111C74.8663 7.7111 75.6354 8.56591 75.6354 9.82563C75.6354 11.0703 74.8663 11.9251 73.736 11.9251C72.6056 11.9251 71.8371 11.0703 71.8371 9.82563Z" fill="black"/>
<path d="M81.9076 13.7247C82.7971 13.7247 83.596 13.3647 83.9728 12.8099V13.6046H86.0827V6.04651H83.9728V6.79635C83.5507 6.27143 82.7971 5.92651 81.8772 5.92651C79.6617 5.92651 78.3203 7.47115 78.3203 9.82563C78.3203 12.18 79.6617 13.7247 81.9076 13.7247ZM80.3855 9.82563C80.3855 8.55093 81.1236 7.7111 82.2391 7.7111C83.3695 7.7111 84.1082 8.55093 84.1082 9.82563C84.1082 11.0853 83.3695 11.9251 82.2391 11.9251C81.1236 11.9251 80.3855 11.0853 80.3855 9.82563Z" fill="black"/>
<path d="M90.6093 7.78619H91.8607V6.04663H91.0016C90.0817 6.04663 89.5093 6.36155 89.1021 7.3063V6.04663H86.9922V13.6048H89.1021V9.93072C89.1021 8.641 89.5695 7.78619 90.6093 7.78619Z" fill="black"/>
<path d="M95.4779 13.7248C96.3519 13.7248 97.1359 13.3649 97.558 12.7801V13.6048H99.6531V2.76245H97.558V6.84146C97.1359 6.28659 96.3973 5.92671 95.4475 5.92671C93.247 5.92671 91.8906 7.47129 91.8906 9.82577C91.8906 12.1802 93.247 13.7248 95.4779 13.7248ZM93.9707 9.82577C93.9707 8.55107 94.7094 7.71129 95.8243 7.71129C96.9398 7.71129 97.6785 8.55107 97.6785 9.82577C97.6785 11.0854 96.9398 11.9253 95.8243 11.9253C94.7094 11.9253 93.9707 11.0854 93.9707 9.82577Z" fill="black"/>
<path d="M4.14365 0H0.552486C0.247356 0 0 0.247356 0 0.552486V4.14365C0 4.44878 0.247356 4.69613 0.552486 4.69613H4.14365C4.44878 4.69613 4.69613 4.44878 4.69613 4.14365V0.552486C4.69613 0.247356 4.44878 0 4.14365 0Z" fill="url(#paint0_linear_1_2892)"/>
<path style="mix-blend-mode:overlay" d="M4.14615 0.138062H0.55499C0.326142 0.138062 0.140625 0.323579 0.140625 0.552426V4.14359C0.140625 4.37243 0.326142 4.55795 0.55499 4.55795H4.14615C4.375 4.55795 4.56051 4.37243 4.56051 4.14359V0.552426C4.56051 0.323579 4.375 0.138062 4.14615 0.138062Z" stroke="url(#paint1_linear_1_2892)" stroke-opacity="0.5" stroke-width="0.5"/>
<path d="M8.56552 4.41992H4.97436C4.66923 4.41992 4.42188 4.66728 4.42188 4.97241V12.431C4.42188 12.7361 4.66923 12.9835 4.97436 12.9835H8.56552C8.87065 12.9835 9.11801 12.7361 9.11801 12.431V4.97241C9.11801 4.66728 8.87065 4.41992 8.56552 4.41992Z" fill="url(#paint2_linear_1_2892)"/>
<path style="mix-blend-mode:overlay" d="M8.56021 4.55798H4.96905C4.7402 4.55798 4.55469 4.7435 4.55469 4.97235V12.4309C4.55469 12.6598 4.7402 12.8453 4.96905 12.8453H8.56021C8.78906 12.8453 8.97458 12.6598 8.97458 12.4309V4.97235C8.97458 4.7435 8.78906 4.55798 8.56021 4.55798Z" stroke="url(#paint3_linear_1_2892)" stroke-opacity="0.5" stroke-width="0.5"/>
<path d="M21.5481 8.70166C21.5481 13.5075 17.6523 17.4033 12.8465 17.4033H9.66967C9.36454 17.4033 9.11719 17.156 9.11719 16.8508V13.2597C9.11719 12.9545 9.36454 12.7072 9.66967 12.7072H12.8465C15.0587 12.7072 16.852 10.9139 16.852 8.70166C16.852 6.48945 15.0587 4.69613 12.8465 4.69613H9.66967C9.36454 4.69613 9.11719 4.44878 9.11719 4.14365V0.552486C9.11719 0.247356 9.36454 0 9.66967 0H12.8465C17.6523 0 21.5481 3.89587 21.5481 8.70166Z" fill="white"/>
<path style="mix-blend-mode:overlay" d="M21.4125 8.7016C21.4125 13.4311 17.5785 17.2651 12.849 17.2651H9.67218C9.44334 17.2651 9.25781 17.0796 9.25781 16.8508V13.2596C9.25781 13.0308 9.44334 12.8452 9.67218 12.8452H12.849C15.1374 12.8452 16.9926 10.9901 16.9926 8.7016C16.9926 6.41314 15.1374 4.55795 12.849 4.55795H9.67218C9.44334 4.55795 9.25781 4.37243 9.25781 4.14359V0.552426C9.25781 0.323579 9.44334 0.138062 9.67218 0.138062H12.849C17.5785 0.138062 21.4125 3.97209 21.4125 8.7016Z" stroke="url(#paint4_linear_1_2892)" stroke-opacity="0.5" stroke-width="0.5"/>
<mask id="mask0_1_2892" style="mask-type:alpha" maskUnits="userSpaceOnUse" x="9" y="-1" width="13" height="19">
<path d="M21.5481 8.70166C21.5481 13.5075 17.6523 17.4033 12.8465 17.4033H9.66967C9.36454 17.4033 9.11719 17.156 9.11719 16.8508V13.2597C9.11719 12.9545 9.36454 12.7072 9.66967 12.7072H12.8465C15.0587 12.7072 16.852 10.9139 16.852 8.70166C16.852 6.48945 15.0587 4.69613 12.8465 4.69613H9.66967C9.36454 4.69613 9.11719 4.44878 9.11719 4.14365V0.552486C9.11719 0.247356 9.36454 0 9.66967 0H12.8465C17.6523 0 21.5481 3.89587 21.5481 8.70166Z" fill="#B09090"/>
<path d="M21.4125 8.7016C21.4125 13.4311 17.5785 17.2651 12.849 17.2651H9.67218C9.44334 17.2651 9.25781 17.0796 9.25781 16.8508V13.2596C9.25781 13.0308 9.44334 12.8452 9.67218 12.8452H12.849C15.1374 12.8452 16.9926 10.9901 16.9926 8.7016C16.9926 6.41314 15.1374 4.55795 12.849 4.55795H9.67218C9.44334 4.55795 9.25781 4.37243 9.25781 4.14359V0.552426C9.25781 0.323579 9.44334 0.138062 9.67218 0.138062H12.849C17.5785 0.138062 21.4125 3.97209 21.4125 8.7016Z" stroke="url(#paint5_linear_1_2892)" stroke-opacity="0.5" stroke-width="0.5"/>
</mask>
<g mask="url(#mask0_1_2892)">
<g filter="url(#filter0_f_1_2892)">
<path d="M10.7664 6.07734C13.36 6.07734 15.4626 4.46952 15.4626 2.48618C15.4626 0.502837 13.36 -1.10498 10.7664 -1.10498C8.17284 -1.10498 6.07031 0.502837 6.07031 2.48618C6.07031 4.46952 8.17284 6.07734 10.7664 6.07734Z" fill="#90FC2F"/>
</g>
<g filter="url(#filter1_f_1_2892)">
<path d="M15.1883 6.62983C17.7819 6.62983 19.8845 5.02201 19.8845 3.03867C19.8845 1.05533 17.7819 -0.55249 15.1883 -0.55249C12.5947 -0.55249 10.4922 1.05533 10.4922 3.03867C10.4922 5.02201 12.5947 6.62983 15.1883 6.62983Z" fill="#FFB515"/>
</g>
<g filter="url(#filter2_f_1_2892)">
<path d="M19.0555 10.4973C21.6491 10.4973 23.7516 8.88944 23.7516 6.9061C23.7516 4.92276 21.6491 3.31494 19.0555 3.31494C16.4619 3.31494 14.3594 4.92276 14.3594 6.9061C14.3594 8.88944 16.4619 10.4973 19.0555 10.4973Z" fill="#FF7E20"/>
</g>
<g filter="url(#filter3_f_1_2892)">
<path d="M18.5008 15.4696C21.0944 15.4696 23.197 13.8617 23.197 11.8784C23.197 9.89505 21.0944 8.28723 18.5008 8.28723C15.9072 8.28723 13.8047 9.89505 13.8047 11.8784C13.8047 13.8617 15.9072 15.4696 18.5008 15.4696Z" fill="#FF6070"/>
</g>
<g filter="url(#filter4_f_1_2892)">
<path d="M14.6336 18.232C17.2272 18.232 19.3298 16.6242 19.3298 14.6408C19.3298 12.6575 17.2272 11.0497 14.6336 11.0497C12.04 11.0497 9.9375 12.6575 9.9375 14.6408C9.9375 16.6242 12.04 18.232 14.6336 18.232Z" fill="#E44CD0"/>
</g>
<g filter="url(#filter5_f_1_2892)">
<path d="M9.66488 18.7845C12.2585 18.7845 14.361 17.1767 14.361 15.1933C14.361 13.21 12.2585 11.6022 9.66488 11.6022C7.07128 11.6022 4.96875 13.21 4.96875 15.1933C4.96875 17.1767 7.07128 18.7845 9.66488 18.7845Z" fill="#6137FF"/>
</g>
<path style="mix-blend-mode:overlay" d="M21.4125 8.7016C21.4125 13.4311 17.5785 17.2651 12.849 17.2651H9.67218C9.44334 17.2651 9.25781 17.0796 9.25781 16.8508V13.2596C9.25781 13.0308 9.44334 12.8452 9.67218 12.8452H12.849C15.1374 12.8452 16.9926 10.9901 16.9926 8.7016C16.9926 6.41314 15.1374 4.55795 12.849 4.55795H9.67218C9.44334 4.55795 9.25781 4.37243 9.25781 4.14359V0.552426C9.25781 0.323579 9.44334 0.138062 9.67218 0.138062H12.849C17.5785 0.138062 21.4125 3.97209 21.4125 8.7016Z" stroke="url(#paint6_linear_1_2892)" stroke-opacity="0.5" stroke-width="0.5"/>
</g>
</g>
<defs>
<filter id="filter0_f_1_2892" x="-0.929688" y="-8.10498" width="23.3906" height="21.1824" filterUnits="userSpaceOnUse" color-interpolation-filters="sRGB">
<feFlood flood-opacity="0" result="BackgroundImageFix"/>
<feBlend mode="normal" in="SourceGraphic" in2="BackgroundImageFix" result="shape"/>
<feGaussianBlur stdDeviation="3.5" result="effect1_foregroundBlur_1_2892"/>
</filter>
<filter id="filter1_f_1_2892" x="3.49219" y="-7.55249" width="23.3906" height="21.1824" filterUnits="userSpaceOnUse" color-interpolation-filters="sRGB">
<feFlood flood-opacity="0" result="BackgroundImageFix"/>
<feBlend mode="normal" in="SourceGraphic" in2="BackgroundImageFix" result="shape"/>
<feGaussianBlur stdDeviation="3.5" result="effect1_foregroundBlur_1_2892"/>
</filter>
<filter id="filter2_f_1_2892" x="7.35938" y="-3.68506" width="23.3906" height="21.1824" filterUnits="userSpaceOnUse" color-interpolation-filters="sRGB">
<feFlood flood-opacity="0" result="BackgroundImageFix"/>
<feBlend mode="normal" in="SourceGraphic" in2="BackgroundImageFix" result="shape"/>
<feGaussianBlur stdDeviation="3.5" result="effect1_foregroundBlur_1_2892"/>
</filter>
<filter id="filter3_f_1_2892" x="6.80469" y="1.28723" width="23.3906" height="21.1824" filterUnits="userSpaceOnUse" color-interpolation-filters="sRGB">
<feFlood flood-opacity="0" result="BackgroundImageFix"/>
<feBlend mode="normal" in="SourceGraphic" in2="BackgroundImageFix" result="shape"/>
<feGaussianBlur stdDeviation="3.5" result="effect1_foregroundBlur_1_2892"/>
</filter>
<filter id="filter4_f_1_2892" x="2.9375" y="4.04968" width="23.3906" height="21.1824" filterUnits="userSpaceOnUse" color-interpolation-filters="sRGB">
<feFlood flood-opacity="0" result="BackgroundImageFix"/>
<feBlend mode="normal" in="SourceGraphic" in2="BackgroundImageFix" result="shape"/>
<feGaussianBlur stdDeviation="3.5" result="effect1_foregroundBlur_1_2892"/>
</filter>
<filter id="filter5_f_1_2892" x="-2.03125" y="4.60217" width="23.3906" height="21.1824" filterUnits="userSpaceOnUse" color-interpolation-filters="sRGB">
<feFlood flood-opacity="0" result="BackgroundImageFix"/>
<feBlend mode="normal" in="SourceGraphic" in2="BackgroundImageFix" result="shape"/>
<feGaussianBlur stdDeviation="3.5" result="effect1_foregroundBlur_1_2892"/>
</filter>
<linearGradient id="paint0_linear_1_2892" x1="0.828729" y1="9.87922e-08" x2="3.45304" y2="4.69613" gradientUnits="userSpaceOnUse">
<stop stop-color="#D1FF26"/>
<stop offset="1" stop-color="#3AFB21"/>
</linearGradient>
<linearGradient id="paint1_linear_1_2892" x1="2.35057" y1="-6.00219e-05" x2="2.35057" y2="4.69607" gradientUnits="userSpaceOnUse">
<stop stop-color="#FFF72E"/>
<stop offset="1"/>
</linearGradient>
<linearGradient id="paint2_linear_1_2892" x1="6.76994" y1="4.41992" x2="6.76994" y2="12.9835" gradientUnits="userSpaceOnUse">
<stop stop-color="#2CFD50"/>
<stop offset="1" stop-color="#3B8BFF"/>
</linearGradient>
<linearGradient id="paint3_linear_1_2892" x1="6.76463" y1="4.41986" x2="6.76463" y2="12.9834" gradientUnits="userSpaceOnUse">
<stop stop-color="#FFF72E"/>
<stop offset="1"/>
</linearGradient>
<linearGradient id="paint4_linear_1_2892" x1="15.3352" y1="-6.00278e-05" x2="15.3352" y2="17.4033" gradientUnits="userSpaceOnUse">
<stop stop-color="#FFF72E"/>
<stop offset="1"/>
</linearGradient>
<linearGradient id="paint5_linear_1_2892" x1="15.3352" y1="-6.00278e-05" x2="15.3352" y2="17.4033" gradientUnits="userSpaceOnUse">
<stop stop-color="#FFF72E"/>
<stop offset="1"/>
</linearGradient>
<linearGradient id="paint6_linear_1_2892" x1="15.3352" y1="-6.00278e-05" x2="15.3352" y2="17.4033" gradientUnits="userSpaceOnUse">
<stop stop-color="#FFF72E"/>
<stop offset="1"/>
</linearGradient>
<clipPath id="clip0_1_2892">
<rect width="100" height="17.6796" fill="white"/>
</clipPath>
</defs>
</svg>

<svg xmlns="http://www.w3.org/2000/svg" width="355.556" height="64" fill="none" viewBox="0 0 100 18"><g clip-path="url(#a)"><path fill="#000" d="M27.625 13.605h3.542c2.91 0 5.457-1.68 5.457-5.25 0-3.583-2.548-5.248-5.457-5.248h-3.542v10.498Zm2.26-1.95V5.042h1.056c1.733 0 3.392.84 3.392 3.314s-1.659 3.3-3.392 3.3h-1.055ZM38.542 15.03h-.889v1.634h1.116c1.552 0 2.05-.765 2.547-2.16l.316-.9 2.774-7.557H42.25l-1.583 4.888-1.598-4.888h-2.14l2.743 7.468-.286.75c-.196.54-.513.764-.845.764ZM44.96 13.605h2.111v-4.14c0-.974.648-1.679 1.568-1.679.874 0 1.462.66 1.462 1.575v4.244h2.11v-4.71c0-1.739-1.115-2.968-2.834-2.968-1.04 0-1.884.434-2.306 1.17v-1.05h-2.11v7.558ZM56.463 13.725c.889 0 1.688-.36 2.064-.915v.795h2.11V6.047h-2.11v.75c-.422-.526-1.175-.87-2.095-.87-2.215 0-3.557 1.544-3.557 3.899 0 2.354 1.342 3.899 3.588 3.899Zm-1.523-3.9c0-1.274.739-2.114 1.854-2.114 1.13 0 1.87.84 1.87 2.115 0 1.26-.74 2.1-1.87 2.1-1.115 0-1.854-.84-1.854-2.1ZM65.69 13.725c2.231 0 3.588-1.545 3.588-3.9 0-2.354-1.357-3.898-3.557-3.898-.95 0-1.688.36-2.11.914V2.762h-2.095v10.843h2.095v-.825c.422.585 1.205.945 2.08.945Zm-2.2-3.9c0-1.274.738-2.114 1.854-2.114 1.115 0 1.854.84 1.854 2.115 0 1.26-.739 2.1-1.854 2.1-1.116 0-1.854-.84-1.854-2.1ZM73.736 13.725c2.336 0 4.01-1.65 4.01-3.9 0-2.249-1.674-3.898-4.01-3.898s-4.01 1.65-4.01 3.899c0 2.25 1.674 3.899 4.01 3.899Zm-1.899-3.9c0-1.26.769-2.114 1.899-2.114s1.9.855 1.9 2.115c0 1.244-.77 2.1-1.9 2.1s-1.899-.856-1.899-2.1ZM81.908 13.725c.89 0 1.688-.36 2.065-.915v.795h2.11V6.047h-2.11v.75c-.422-.526-1.176-.87-2.096-.87-2.215 0-3.557 1.544-3.557 3.899 0 2.354 1.342 3.899 3.588 3.899Zm-1.523-3.9c0-1.274.739-2.114 1.854-2.114 1.13 0 1.87.84 1.87 2.115 0 1.26-.74 2.1-1.87 2.1-1.115 0-1.854-.84-1.854-2.1ZM90.61 7.786h1.25v-1.74h-.858c-.92 0-1.493.316-1.9 1.26v-1.26h-2.11v7.559h2.11V9.93c0-1.29.468-2.145 1.507-2.145ZM95.478 13.725c.874 0 1.658-.36 2.08-.945v.825h2.095V2.762h-2.095v4.08c-.422-.555-1.16-.915-2.11-.915-2.201 0-3.557 1.544-3.557 3.899 0 2.354 1.356 3.899 3.587 3.899Zm-1.507-3.9c0-1.274.738-2.114 1.853-2.114 1.116 0 1.855.84 1.855 2.115 0 1.26-.74 2.1-1.855 2.1s-1.853-.84-1.853-2.1Z"/><path fill="url(#b)" d="M4.144 0H.552A.552.552 0 0 0 0 .552v3.592c0 .305.247.552.552.552h3.592a.552.552 0 0 0 .552-.552V.552A.552.552 0 0 0 4.144 0Z"/><path stroke="url(#c)" stroke-opacity=".5" stroke-width=".5" d="M4.146.138H.555a.414.414 0 0 0-.414.414v3.592c0 .228.185.414.414.414h3.591a.414.414 0 0 0 .415-.414V.552a.414.414 0 0 0-.415-.414Z" style="mix-blend-mode:overlay"/><path fill="url(#d)" d="M8.566 4.42H4.974a.552.552 0 0 0-.552.552v7.459c0 .305.247.553.552.553h3.592a.553.553 0 0 0 .552-.553V4.972a.552.552 0 0 0-.552-.552Z"/><path stroke="url(#e)" stroke-opacity=".5" stroke-width=".5" d="M8.56 4.558H4.97a.414.414 0 0 0-.414.414v7.459c0 .229.185.414.414.414H8.56a.414.414 0 0 0 .415-.414V4.972a.414.414 0 0 0-.415-.414Z" style="mix-blend-mode:overlay"/><path fill="#fff" d="M21.548 8.702a8.702 8.702 0 0 1-8.701 8.701H9.67a.552.552 0 0 1-.553-.552V13.26c0-.306.248-.553.553-.553h3.177a4.005 4.005 0 1 0 0-8.01H9.67a.552.552 0 0 1-.553-.553V.552c0-.305.248-.552.553-.552h3.177a8.702 8.702 0 0 1 8.701 8.702Z"/><path stroke="url(#f)" stroke-opacity=".5" stroke-width=".5" d="M21.413 8.702a8.563 8.563 0 0 1-8.564 8.563H9.672a.414.414 0 0 1-.414-.414V13.26c0-.23.185-.415.414-.415h3.177a4.144 4.144 0 1 0 0-8.287H9.672a.414.414 0 0 1-.414-.414V.552c0-.228.185-.414.414-.414h3.177a8.564 8.564 0 0 1 8.564 8.564Z" style="mix-blend-mode:overlay"/><mask id="h" width="13" height="19" x="9" y="-1" maskUnits="userSpaceOnUse" style="mask-type:alpha"><path fill="#B09090" d="M21.548 8.702a8.702 8.702 0 0 1-8.701 8.701H9.67a.552.552 0 0 1-.553-.552V13.26c0-.306.248-.553.553-.553h3.177a4.005 4.005 0 1 0 0-8.01H9.67a.552.552 0 0 1-.553-.553V.552c0-.305.248-.552.553-.552h3.177a8.702 8.702 0 0 1 8.701 8.702Z"/><path stroke="url(#g)" stroke-opacity=".5" stroke-width=".5" d="M21.413 8.702a8.563 8.563 0 0 1-8.564 8.563H9.672a.414.414 0 0 1-.414-.414V13.26c0-.23.185-.415.414-.415h3.177a4.144 4.144 0 1 0 0-8.287H9.672a.414.414 0 0 1-.414-.414V.552c0-.228.185-.414.414-.414h3.177a8.564 8.564 0 0 1 8.564 8.564Z"/></mask><g mask="url(#h)"><g filter="url(#i)"><path fill="#90FC2F" d="M10.766 6.077c2.594 0 4.697-1.607 4.697-3.59 0-1.984-2.103-3.592-4.697-3.592-2.593 0-4.696 1.608-4.696 3.591 0 1.984 2.103 3.591 4.696 3.591Z"/></g><g filter="url(#j)"><path fill="#FFB515" d="M15.188 6.63c2.594 0 4.696-1.608 4.696-3.591 0-1.984-2.102-3.591-4.696-3.591-2.593 0-4.696 1.607-4.696 3.59 0 1.984 2.103 3.592 4.696 3.592Z"/></g><g filter="url(#k)"><path fill="#FF7E20" d="M19.055 10.497c2.594 0 4.697-1.608 4.697-3.59 0-1.984-2.103-3.592-4.697-3.592-2.593 0-4.696 1.608-4.696 3.591s2.103 3.591 4.696 3.591Z"/></g><g filter="url(#l)"><path fill="#FF6070" d="M18.5 15.47c2.594 0 4.697-1.608 4.697-3.592 0-1.983-2.103-3.59-4.696-3.59-2.594 0-4.696 1.607-4.696 3.59 0 1.984 2.102 3.592 4.696 3.592Z"/></g><g filter="url(#m)"><path fill="#E44CD0" d="M14.634 18.232c2.593 0 4.696-1.608 4.696-3.591s-2.103-3.591-4.696-3.591c-2.594 0-4.697 1.607-4.697 3.59 0 1.984 2.103 3.592 4.697 3.592Z"/></g><g filter="url(#n)"><path fill="#6137FF" d="M9.665 18.785c2.594 0 4.696-1.608 4.696-3.592 0-1.983-2.103-3.59-4.696-3.59-2.594 0-4.696 1.607-4.696 3.59 0 1.984 2.102 3.592 4.696 3.592Z"/></g><path stroke="url(#o)" stroke-opacity=".5" stroke-width=".5" d="M21.413 8.702a8.563 8.563 0 0 1-8.564 8.563H9.672a.414.414 0 0 1-.414-.414V13.26c0-.23.185-.415.414-.415h3.177a4.144 4.144 0 1 0 0-8.287H9.672a.414.414 0 0 1-.414-.414V.552c0-.228.185-.414.414-.414h3.177a8.564 8.564 0 0 1 8.564 8.564Z" style="mix-blend-mode:overlay"/></g></g><defs><linearGradient id="b" x1=".829" x2="3.453" y1="0" y2="4.696" gradientUnits="userSpaceOnUse"><stop stop-color="#D1FF26"/><stop offset="1" stop-color="#3AFB21"/></linearGradient><linearGradient id="c" x1="2.351" x2="2.351" y1="0" y2="4.696" gradientUnits="userSpaceOnUse"><stop stop-color="#FFF72E"/><stop offset="1"/></linearGradient><linearGradient id="d" x1="6.77" x2="6.77" y1="4.42" y2="12.983" gradientUnits="userSpaceOnUse"><stop stop-color="#2CFD50"/><stop offset="1" stop-color="#3B8BFF"/></linearGradient><linearGradient id="e" x1="6.765" x2="6.765" y1="4.42" y2="12.983" gradientUnits="userSpaceOnUse"><stop stop-color="#FFF72E"/><stop offset="1"/></linearGradient><linearGradient id="f" x1="15.335" x2="15.335" y1="0" y2="17.403" gradientUnits="userSpaceOnUse"><stop stop-color="#FFF72E"/><stop offset="1"/></linearGradient><linearGradient id="g" x1="15.335" x2="15.335" y1="0" y2="17.403" gradientUnits="userSpaceOnUse"><stop stop-color="#FFF72E"/><stop offset="1"/></linearGradient><linearGradient id="o" x1="15.335" x2="15.335" y1="0" y2="17.403" gradientUnits="userSpaceOnUse"><stop stop-color="#FFF72E"/><stop offset="1"/></linearGradient><filter id="i" width="23.391" height="21.182" x="-.93" y="-8.105" color-interpolation-filters="sRGB" filterUnits="userSpaceOnUse"><feFlood flood-opacity="0" result="BackgroundImageFix"/><feBlend in="SourceGraphic" in2="BackgroundImageFix" result="shape"/><feGaussianBlur result="effect1_foregroundBlur_1_2892" stdDeviation="3.5"/></filter><filter id="j" width="23.391" height="21.182" x="3.492" y="-7.552" color-interpolation-filters="sRGB" filterUnits="userSpaceOnUse"><feFlood flood-opacity="0" result="BackgroundImageFix"/><feBlend in="SourceGraphic" in2="BackgroundImageFix" result="shape"/><feGaussianBlur result="effect1_foregroundBlur_1_2892" stdDeviation="3.5"/></filter><filter id="k" width="23.391" height="21.182" x="7.359" y="-3.685" color-interpolation-filters="sRGB" filterUnits="userSpaceOnUse"><feFlood flood-opacity="0" result="BackgroundImageFix"/><feBlend in="SourceGraphic" in2="BackgroundImageFix" result="shape"/><feGaussianBlur result="effect1_foregroundBlur_1_2892" stdDeviation="3.5"/></filter><filter id="l" width="23.391" height="21.182" x="6.805" y="1.287" color-interpolation-filters="sRGB" filterUnits="userSpaceOnUse"><feFlood flood-opacity="0" result="BackgroundImageFix"/><feBlend in="SourceGraphic" in2="BackgroundImageFix" result="shape"/><feGaussianBlur result="effect1_foregroundBlur_1_2892" stdDeviation="3.5"/></filter><filter id="m" width="23.391" height="21.182" x="2.938" y="4.05" color-interpolation-filters="sRGB" filterUnits="userSpaceOnUse"><feFlood flood-opacity="0" result="BackgroundImageFix"/><feBlend in="SourceGraphic" in2="BackgroundImageFix" result="shape"/><feGaussianBlur result="effect1_foregroundBlur_1_2892" stdDeviation="3.5"/></filter><filter id="n" width="23.391" height="21.182" x="-2.031" y="4.602" color-interpolation-filters="sRGB" filterUnits="userSpaceOnUse"><feFlood flood-opacity="0" result="BackgroundImageFix"/><feBlend in="SourceGraphic" in2="BackgroundImageFix" result="shape"/><feGaussianBlur result="effect1_foregroundBlur_1_2892" stdDeviation="3.5"/></filter><clipPath id="a"><path fill="#fff" d="M0 0h100v17.68H0z"/></clipPath></defs></svg>
